X: 23
T: Lark In The Morning, The
Z: UPipes & harp
S: https://thesession.org/tunes/62#setting49165
R: jig
M: 6/8
L: 1/8
K: Dmaj
|:A3 {B}AFA|B2 G Bcd|{c}A2 F AFA|g/f/ed Bcd|
{c} AFA {c} AFA|{c}BGG {c}BAB|def afe|1 fdB BdB:|2 fdB {c}BAB|
|:def a3|baf afe|def afe|fdB {c}BAB|
def a3|baf afd|g3 faf|edB BAB:|
|:d2f fef|fef fef|d2f fef|edB BAB|
d2f fef|fef fef|g3 faf|1 edB BAB:|2 edB BAF|
|:Add fdd|edd fdd|Add fdd|edB BAF|
Add fdd|edd fdd|1 faf gfe|fdB BAF:|2 f/g/af g2 f|edB BdB|

